fs/notepad_edit_20_filled.svg

<svg viewBox="0 0 20 20" fill="none" xmlns="http://www.w3.org/2000/svg" height="1em" width="1em">
  <path d="M15.8092 10.5478L10.9798 15.3772C10.6982 15.6588 10.4984 16.0116 10.4018 16.3979L10.0274 17.8958C9.86451 18.5472 10.4546 19.1372 11.106 18.9744L12.6039 18.5999C12.9902 18.5033 13.343 18.3036 13.6246 18.022L18.454 13.1926C19.1843 12.4622 19.1843 11.2781 18.454 10.5478C17.7237 9.81741 16.5395 9.81741 15.8092 10.5478ZM7 2.5C7 2.22386 6.77614 2 6.5 2C6.22386 2 6 2.22386 6 2.5V3H5.5C4.67157 3 4 3.67157 4 4.5V16.5C4 17.3284 4.67157 18 5.5 18H9.00286C9.01015 17.8859 9.02795 17.7701 9.05716 17.6532L9.43163 16.1554C9.57217 15.5932 9.86283 15.0798 10.2726 14.6701L15.102 9.84065C15.3683 9.5744 15.6738 9.37139 16 9.23163V4.5C16 3.67157 15.3284 3 14.5 3H14V2.5C14 2.22386 13.7761 2 13.5 2C13.2239 2 13 2.22386 13 2.5V3H10.5V2.5C10.5 2.22386 10.2761 2 10 2C9.72386 2 9.5 2.22386 9.5 2.5V3H7V2.5ZM7.5 7H12.5C12.7761 7 13 7.22386 13 7.5C13 7.77614 12.7761 8 12.5 8H7.5C7.22386 8 7 7.77614 7 7.5C7 7.22386 7.22386 7 7.5 7ZM13 10.5C13 10.7761 12.7761 11 12.5 11H7.5C7.22386 11 7 10.7761 7 10.5C7 10.2239 7.22386 10 7.5 10H12.5C12.7761 10 13 10.2239 13 10.5ZM7.5 13H9.5C9.77614 13 10 13.2239 10 13.5C10 13.7761 9.77614 14 9.5 14H7.5C7.22386 14 7 13.7761 7 13.5C7 13.2239 7.22386 13 7.5 13Z" fill="#212121"/>
</svg>

<svg viewBox="0 0 20 20" fill="none" xmlns="http://www.w3.org/2000/svg" height="1em" width="1em">
  <path d="m15.81 10.548-4.83 4.83a2.197 2.197 0 0 0-.578 1.02l-.375 1.498a.89.89 0 0 0 1.079 1.078l1.498-.374a2.194 2.194 0 0 0 1.02-.578l4.83-4.83a1.87 1.87 0 0 0-2.645-2.644ZM7 2.5a.5.5 0 0 0-1 0V3h-.5A1.5 1.5 0 0 0 4 4.5v12A1.5 1.5 0 0 0 5.5 18h3.503c.007-.114.025-.23.054-.347l.375-1.498a3.19 3.19 0 0 1 .84-1.485l4.83-4.83A2.85 2.85 0 0 1 16 9.232V4.5A1.5 1.5 0 0 0 14.5 3H14v-.5a.5.5 0 0 0-1 0V3h-2.5v-.5a.5.5 0 0 0-1 0V3H7v-.5ZM7.5 7h5a.5.5 0 0 1 0 1h-5a.5.5 0 0 1 0-1Zm5.5 3.5a.5.5 0 0 1-.5.5h-5a.5.5 0 0 1 0-1h5a.5.5 0 0 1 .5.5ZM7.5 13h2a.5.5 0 0 1 0 1h-2a.5.5 0 0 1 0-1Z" fill="#212121"/>
</svg>
